usr/share/icons/biglinux-icons-material-dark/22/actions/edit-move.svg

<svg xmlns="http://www.w3.org/2000/svg" viewBox="0 0 22 22">
<defs>
<style id="current-color-scheme" type="text/css">
.ColorScheme-Text{color:#dedede}
</style>
</defs>
<path d="M3 3v14h4v-1H4V4h4v2h4L9 3Z" class="ColorScheme-Text" style="fill:currentColor;fill-opacity:.5;stroke:none"/>
<path d="M7 6v13h10v-9l-4-4Zm1 1h4v4h4v7H8z" class="ColorScheme-Text" style="fill:currentColor;fill-opacity:1;stroke:none"/>
</svg>

<!DOCTYPE svg>
<svg viewBox="0 0 22 22" version="1.1" xmlns="http://www.w3.org/2000/svg">
    <defs>
        <style type="text/css" id="current-color-scheme">
            .ColorScheme-Text {
                color:#dedede;
            }
        </style>
    </defs>
    <path class="ColorScheme-Text" style="fill:currentColor; fill-opacity:0.5; stroke:none" d="M 3 3 L 3 17 L 7 17 L 7 16 L 4 16 L 4 4 L 8 4 L 8 6 L 12 6 L 9 3 Z"/>
    <path class="ColorScheme-Text" style="fill:currentColor; fill-opacity:1; stroke:none" d="M 7 6 L 7 19 L 17 19 L 17 10 L 13 6 Z Z M 8 7 L 12 7 L 12 11 L 16 11 L 16 18 L 8 18 L 8 7 Z"/>
</svg>
